X: 22363
T: Lad From Mt. Kisco, The
R: jig
M: 6/8
K: Dmajor
DFA BAF|Ede fdB|AFA BdB|AFD EDB,|
A,FA BAF|Ede fdB|AFA BdB|AFE D3:|
def afa|baf afd|Adg fdB|Adf edB|
Adf afa|baf afd|Adg fdB|AFE D3:|

